packages/elvis-assets-icons/icons/svg/src/clock.svg

<svg width="24" height="24" viewBox="0 0 24 24" fill="none" xmlns="http://www.w3.org/2000/svg">
<g clip-path="url(#clip0)">
<path d="M12 24C5.38347 24 0 18.6165 0 12C0 5.38347 5.38347 0 12 0C18.6165 0 24 5.38347 24 12C24 18.6165 18.6165 24 12 24ZM12 1.6C6.2656 1.6 1.6 6.2656 1.6 12C1.6 17.7344 6.2656 22.4 12 22.4C17.7344 22.4 22.4 17.7344 22.4 12C22.4 6.2656 17.7344 1.6 12 1.6Z" fill="black"/>
<path d="M16.9995 17.8005C16.7861 17.8005 16.5845 17.7173 16.4341 17.5658L11.4347 12.5653C11.36 12.4906 11.3013 12.4032 11.2608 12.304C11.2576 12.2954 11.2544 12.2858 11.2512 12.2773C11.2171 12.1856 11.2011 12.0938 11.2011 12V7.99995C11.2011 7.55835 11.5595 7.19995 12.0011 7.19995C12.4427 7.19995 12.8011 7.55835 12.8011 7.99995V11.6682L17.5659 16.4341C17.7173 16.5856 17.8005 16.7861 17.8005 16.9994C17.8005 17.2128 17.7173 17.4144 17.5659 17.5648C17.4144 17.7152 17.2128 17.8005 16.9995 17.8005Z" fill="black"/>
</g>
<defs>
<clipPath id="clip0">
<path d="M0 0H24V24H0V0Z" fill="white"/>
</clipPath>
</defs>
</svg>

<svg width="24" height="24" fill="none" xmlns="http://www.w3.org/2000/svg"><g clip-path="url(#clip0)" fill="#000"><path d="M12 24C5.383 24 0 18.616 0 12 0 5.383 5.383 0 12 0c6.616 0 12 5.383 12 12 0 6.616-5.384 12-12 12zm0-22.4C6.266 1.6 1.6 6.266 1.6 12S6.266 22.4 12 22.4 22.4 17.734 22.4 12 17.734 1.6 12 1.6z"/><path d="M17 17.8a.792.792 0 01-.566-.234l-5-5a.789.789 0 01-.173-.262l-.01-.027a.786.786 0 01-.05-.277V8a.8.8 0 011.6 0v3.668l4.765 4.766A.794.794 0 0117.8 17 .802.802 0 0117 17.8z"/></g><defs><clipPath id="clip0"><path d="M0 0h24v24H0V0z" fill="#fff"/></clipPath></defs></svg>
